icons/a-arrow-up.svg

<svg width="24" height="24" viewBox="0 0 24 24" fill="none" xmlns="http://www.w3.org/2000/svg">
<path d="M9.71281 13.9381L7.43834 6.76069C7.11694 5.74644 5.88307 5.74644 5.56166 6.76068L3.28719 13.9381L2 18M3.28719 13.9381C5.52645 14.5381 7.43633 14.5481 9.71281 13.9381M9.71281 13.9381L11 18" stroke="black" stroke-width="2" stroke-linecap="round" stroke-linejoin="round"/>
<path d="M17.5 7V17M17.5 7C19.5 7 21.1821 9.037 22 11M17.5 7C15.5 7 13.8179 9.037 13 11" stroke="black" stroke-width="2" stroke-linecap="round" stroke-linejoin="round"/>
</svg>

<svg xmlns="http://www.w3.org/2000/svg" width="24" height="24" viewBox="0 0 24 24" fill="none" stroke="currentColor" stroke-width="2" stroke-linecap="round" stroke-linejoin="round">
<path d="M9.713 13.938 7.438 6.761c-.321-1.015-1.555-1.015-1.876 0l-2.275 7.177L2 18m1.287-4.062c2.24.6 4.15.61 6.426 0m0 0L11 18m6.5-11v10m0-10c2 0 3.682 2.037 4.5 4m-4.5-4c-2 0-3.682 2.037-4.5 4"/>
</svg>
